images/Quot.svg

<svg width="59" height="45" viewBox="0 0 59 45" fill="none" xmlns="http://www.w3.org/2000/svg">
<path d="M13.4098 19.3427C15.7202 19.3425 17.9834 19.996 19.9376 21.2275C21.8917 22.459 23.4569 24.2181 24.4523 26.3012C25.4477 28.3843 25.8325 30.7065 25.5623 32.999C25.2922 35.2915 24.378 37.4608 22.9256 39.256C21.4732 41.0512 19.5417 42.3988 17.3547 43.143C15.1677 43.8872 12.8145 43.9974 10.5674 43.4609C8.32025 42.9244 6.27113 41.7632 4.657 40.1116C3.04287 38.46 1.9297 36.3856 1.44614 34.1284L1.23338 33.1353L1.22723 33.1367C1.18993 32.847 1.1541 32.5271 1.13033 32.2041L1.12946 32.1924L1.12833 32.1807C1.01009 30.9654 0.951634 29.261 1.04932 27.1949C1.167 25.143 1.47023 22.7542 2.14395 20.2464C2.50055 18.9929 2.93406 17.7116 3.46825 16.4645C3.53126 16.3316 3.59338 16.1999 3.65494 16.0693C4.20987 14.8927 4.71965 13.8118 5.43343 12.8186L5.4594 12.7824L5.48206 12.7441C6.16941 11.5822 7.06724 10.5414 8.03 9.49765L8.05613 9.46932L8.08 9.43907C8.45899 8.95876 8.91835 8.53834 9.43515 8.11146C9.60393 7.97204 9.78968 7.82368 9.98173 7.67028C10.3335 7.38931 10.7064 7.09146 11.0348 6.80085C11.4843 6.42769 11.9752 6.11433 12.5005 5.80596C12.6673 5.70805 12.8454 5.60641 13.028 5.50218C13.3944 5.29301 13.779 5.07346 14.1272 4.85298L14.137 4.84678L14.1466 4.84037C14.567 4.56029 15.0171 4.35201 15.5037 4.15625C15.658 4.09417 15.8303 4.02821 16.0098 3.95953C16.3384 3.83378 16.6908 3.69891 17.0001 3.56198C17.2706 3.45679 17.5168 3.35671 17.7449 3.26404C18.3944 3.00007 18.8962 2.79614 19.3913 2.70485L19.4233 2.69895L19.4549 2.69096C19.9086 2.57633 20.3077 2.47824 20.677 2.38747C20.9566 2.31874 21.2191 2.25421 21.4754 2.18987L22.2631 2L23.2395 5.89878L22.6441 6.14606L22.6412 6.14728L21.0919 6.78494C20.6876 6.92058 20.3207 7.11591 19.9975 7.30429C19.8466 7.39227 19.695 7.48495 19.5511 7.57287C19.5352 7.58261 19.5193 7.59229 19.5036 7.6019C19.3422 7.7005 19.1877 7.79427 19.0305 7.88433L19.0012 7.90109L18.9732 7.9198C18.7831 8.04642 18.5962 8.14919 18.3692 8.27399C18.2498 8.33965 18.1193 8.41141 17.9714 8.49594C17.5867 8.71582 17.1409 8.99472 16.7381 9.38842C16.5328 9.57738 16.3157 9.74636 16.0604 9.94507C15.9694 10.0159 15.8736 10.0905 15.7717 10.1712C15.4046 10.4617 14.9878 10.8102 14.6232 11.249L14.6116 11.2629L14.6005 11.2773C14.425 11.5047 14.2385 11.7017 14.0152 11.9374C13.9251 12.0326 13.829 12.1342 13.7252 12.2465C13.4031 12.5953 13.0393 13.0189 12.7607 13.5479C12.7508 13.5629 12.7409 13.5779 12.7309 13.5931C12.2478 14.3262 11.6993 15.1584 11.3316 16.1231C10.9619 16.8293 10.7353 17.5907 10.5433 18.236L10.5395 18.2485L10.0931 19.7486L11.6419 19.5233C11.6843 19.5172 11.7262 19.511 11.7678 19.505C12.3637 19.4179 12.8788 19.3427 13.4098 19.3427ZM45.7635 19.3427C48.0738 19.3425 50.3371 19.996 52.2913 21.2275C54.2454 22.459 55.8106 24.2181 56.806 26.3012C57.8014 28.3843 58.1862 30.7065 57.916 32.999C57.6459 35.2915 56.7317 37.4608 55.2793 39.256C53.8269 41.0512 51.8954 42.3988 49.7084 43.143C47.5214 43.8872 45.1682 43.9974 42.9211 43.4609C40.6739 42.9244 38.6248 41.7632 37.0107 40.1116C35.3966 38.46 34.2834 36.3856 33.7998 34.1284L33.5871 33.1353L33.5809 33.1367C33.5436 32.847 33.5078 32.5271 33.484 32.2041L33.4832 32.1924L33.482 32.1807C33.3638 30.9654 33.3053 29.261 33.403 27.1951C33.5207 25.143 33.8239 22.7542 34.4977 20.2462C34.8543 18.9928 35.2878 17.7115 35.8219 16.4645C35.8849 16.3316 35.9471 16.1999 36.0086 16.0694C36.5635 14.8927 37.0733 13.8118 37.7871 12.8186L37.8131 12.7824L37.8358 12.7441C38.5231 11.5822 39.4209 10.5414 40.3837 9.49765L40.4094 9.46979L40.4329 9.44007C40.812 8.9609 41.2715 8.54102 41.7885 8.11429C41.9566 7.97555 42.1413 7.82809 42.3322 7.67566C42.6849 7.39408 43.0588 7.09556 43.3885 6.80379C43.838 6.43063 44.3289 6.11727 44.8542 5.8089C45.021 5.71099 45.1991 5.60935 45.3817 5.50513C45.7481 5.29595 46.1327 5.0764 46.4809 4.85592L46.4915 4.84918L46.502 4.84218C46.9213 4.56163 47.371 4.3537 47.8582 4.15781C48.0085 4.0974 48.1751 4.03357 48.3486 3.96713C48.6816 3.83961 49.0397 3.70244 49.3555 3.56132C49.6253 3.45636 49.871 3.35652 50.0986 3.26403C50.7481 3.00007 51.2499 2.79614 51.745 2.70485L51.777 2.69895L51.8086 2.69096C52.2623 2.57632 52.6614 2.47823 53.0307 2.38745C53.3103 2.31873 53.5729 2.2542 53.8291 2.18987C53.8306 2.18949 53.8322 2.1891 53.8337 2.18871L54.6168 2L55.5932 5.89878L54.9978 6.14606L54.9949 6.14728L53.4456 6.78494C53.0413 6.92058 52.6744 7.11591 52.3512 7.30429C52.2003 7.3923 52.0485 7.48502 51.9046 7.57297L51.8573 7.6019C51.6959 7.70051 51.5414 7.79427 51.3842 7.88433L51.3549 7.90109L51.3269 7.9198C51.1368 8.04642 50.9499 8.14919 50.7229 8.27398C50.6035 8.33964 50.473 8.4114 50.3251 8.49594C49.9404 8.71581 49.4947 8.9947 49.0918 9.38839C48.8865 9.57737 48.6694 9.74636 48.4141 9.9451C48.3231 10.0159 48.2273 10.0905 48.1254 10.1712C47.7583 10.4617 47.3415 10.8102 46.9769 11.249L46.9653 11.2629L46.9542 11.2773C46.7787 11.5047 46.5922 11.7017 46.3689 11.9374C46.2788 12.0326 46.1827 12.1342 46.0789 12.2465C45.7568 12.5953 45.393 13.0189 45.1144 13.5478C45.1045 13.5629 45.0946 13.578 45.0846 13.5931C44.6014 14.3262 44.053 15.1584 43.6853 16.1231C43.3156 16.8293 43.089 17.5907 42.897 18.236L42.8932 18.2485L42.4468 19.7486L43.9956 19.5233C44.038 19.5172 44.0799 19.511 44.1215 19.505C44.7174 19.4179 45.2325 19.3427 45.7635 19.3427Z" stroke="#499F86" stroke-width="2"/>
</svg>

<svg width="59" height="45" fill="none" xmlns="http://www.w3.org/2000/svg"><path d="M13.41 19.343A12.242 12.242 0 0 1 24.452 26.3a12.218 12.218 0 0 1-1.526 12.955 12.236 12.236 0 0 1-12.359 4.205 12.238 12.238 0 0 1-9.12-9.333l-.214-.993-.006.002c-.037-.29-.073-.61-.097-.933v-.012l-.002-.011c-.118-1.216-.176-2.92-.079-4.986.118-2.052.421-4.44 1.095-6.949.357-1.253.79-2.534 1.324-3.781l.187-.396c.555-1.176 1.065-2.257 1.778-3.25l.026-.037.023-.038c.687-1.162 1.585-2.203 2.548-3.246l.026-.029.024-.03c.379-.48.838-.9 1.355-1.328.169-.139.355-.287.547-.44.352-.282.724-.58 1.053-.87.45-.373.94-.687 1.466-.995.166-.098.344-.2.527-.304.366-.209.751-.429 1.1-.649l.009-.006.01-.007c.42-.28.87-.488 1.357-.684.154-.062.326-.128.506-.196.328-.126.68-.261.99-.398.27-.105.517-.205.745-.298.65-.264 1.151-.468 1.646-.56l.032-.005.032-.008c.454-.115.853-.213 1.222-.304.28-.068.542-.133.798-.197l.788-.19.976 3.899-.595.247-.003.001-1.55.638a5.945 5.945 0 0 0-1.094.52c-.15.087-.302.18-.446.268l-.047.029c-.162.098-.316.192-.474.282l-.029.017-.028.019a8.07 8.07 0 0 1-.604.354c-.12.066-.25.137-.398.222-.384.22-.83.499-1.233.892-.205.19-.422.358-.678.557a42.7 42.7 0 0 0-.288.226c-.367.29-.784.64-1.149 1.078l-.011.014-.011.014a8.57 8.57 0 0 1-.586.66c-.09.096-.186.197-.29.31-.322.348-.686.772-.964 1.3l-.03.046c-.483.733-1.032 1.565-1.4 2.53-.37.706-.596 1.468-.788 2.113l-.003.012-.447 1.5 1.549-.225.126-.018c.596-.087 1.11-.162 1.642-.162zm32.354 0A12.242 12.242 0 0 1 56.806 26.3a12.218 12.218 0 0 1-1.527 12.955 12.236 12.236 0 0 1-12.358 4.205 12.237 12.237 0 0 1-9.121-9.333l-.213-.993-.006.002c-.037-.29-.073-.61-.097-.933v-.012l-.002-.011c-.118-1.216-.177-2.92-.079-4.986.118-2.052.42-4.44 1.095-6.949.356-1.253.79-2.534 1.324-3.781l.187-.396c.554-1.176 1.064-2.257 1.778-3.25l.026-.037.023-.038c.687-1.162 1.585-2.203 2.548-3.246l.025-.028.024-.03c.379-.48.839-.899 1.355-1.326.169-.138.353-.286.544-.438.353-.282.727-.58 1.056-.872.45-.373.94-.687 1.466-.995.167-.098.345-.2.528-.304.366-.209.75-.429 1.099-.65l.01-.006.011-.007c.42-.28.869-.488 1.356-.684.15-.06.317-.124.49-.19.334-.128.692-.266 1.008-.407.27-.105.515-.204.743-.297.65-.264 1.15-.468 1.646-.56l.032-.005.032-.008c.453-.115.852-.213 1.222-.304.28-.068.542-.133.798-.197l.005-.001.783-.189.976 3.899-.595.247-.003.001-1.55.638a5.945 5.945 0 0 0-1.094.52c-.15.087-.303.18-.446.268l-.048.029c-.161.099-.316.192-.473.282l-.03.017-.027.019c-.19.126-.377.23-.604.354-.12.066-.25.137-.398.222-.385.22-.83.499-1.233.892-.206.19-.423.358-.678.557l-.289.226c-.367.29-.783.64-1.148 1.078l-.012.014-.01.014a8.57 8.57 0 0 1-.586.66c-.09.096-.186.197-.29.31-.322.348-.686.772-.965 1.3l-.03.046c-.483.733-1.031 1.565-1.399 2.53-.37.706-.596 1.468-.788 2.113l-.004.012-.446 1.5 1.549-.225.125-.018c.596-.087 1.111-.162 1.642-.162z" stroke="#499F86" stroke-width="2"/></svg>
